stuff/products/giordano.svg

<svg viewBox="0 0 1000 660" xmlns="http://www.w3.org/2000/svg"><path d="m0 660h1000v-660h-1000z" fill="#eae3d8"/><path d="m162.189 264.284 5.138 1.314-2.629 10.277-5.138-1.315c-5.442-1.292-11.017-1.933-16.61-1.912-8.079-.096-16.104 1.322-23.66 4.183-13.585 5.155-24.295 15.908-29.395 29.515-2.868 7.512-4.287 15.5-4.183 23.54-.096 8.079 1.322 16.104 4.183 23.66 5.142 13.553 15.843 24.253 29.395 29.396 7.556 2.86 15.581 4.279 23.66 4.182 4.205-.002 8.403-.362 12.547-1.076v-61.42h10.635v70.024l-3.943 1.076c-6.302 1.507-12.759 2.269-19.239 2.27-9.384.069-18.701-1.591-27.484-4.899-16.431-6.208-29.401-19.178-35.609-35.61-6.476-17.75-6.476-37.217 0-54.967 6.208-16.431 19.178-29.402 35.609-35.609 8.783-3.309 18.1-4.97 27.484-4.9 6.48.001 12.937.763 19.239 2.271zm29.395 133.714v-135.985h10.635v135.985zm127.501-131.085c16.431 6.207 29.401 19.178 35.609 35.609 6.477 17.75 6.477 37.217 0 54.967-6.208 16.432-19.178 29.402-35.609 35.61-17.75 6.476-37.217 6.476-54.968 0-16.431-6.208-29.401-19.178-35.609-35.61-6.476-17.75-6.476-37.217 0-54.967 6.208-16.431 19.178-29.402 35.609-35.609 17.751-6.477 37.218-6.477 54.968 0zm-51.144 10.037c-13.585 5.156-24.295 15.909-29.395 29.515-2.868 7.513-4.287 15.5-4.183 23.541-.096 8.079 1.322 16.103 4.183 23.66 5.142 13.552 15.843 24.253 29.395 29.395 7.556 2.861 15.582 4.279 23.66 4.183 8.04.104 16.028-1.315 23.54-4.183 13.607-5.1 24.36-15.81 29.516-29.395 2.86-7.557 4.279-15.582 4.182-23.66.104-8.041-1.314-16.029-4.182-23.541-5.1-13.648-15.867-24.415-29.515-29.515-7.514-2.865-15.501-4.284-23.541-4.182-8.078-.097-16.104 1.322-23.66 4.182zm145.186-14.937c5.666-.069 11.296.903 16.61 2.868 9.929 3.849 17.779 11.699 21.628 21.629 1.966 5.314 2.938 10.944 2.868 16.61.066 5.626-.906 11.216-2.868 16.49-3.849 9.929-11.699 17.779-21.628 21.628-3.651 1.375-7.469 2.259-11.352 2.629l35.968 54.012h-12.906l-35.848-53.654h-13.981v53.654h-10.635v-135.866zm-21.509 71.577h21.509c9.082 0 16.729-2.867 22.107-8.245 5.377-5.377 8.364-13.144 8.364-22.106s-2.868-16.729-8.364-22.107c-5.497-5.377-13.025-8.364-22.107-8.364h-21.509zm109.218-71.577c9.385-.07 18.701 1.591 27.484 4.9 16.422 6.221 29.388 19.186 35.609 35.609 6.477 17.75 6.477 37.217 0 54.967-6.208 16.432-19.178 29.402-35.609 35.61-8.783 3.308-18.099 4.968-27.484 4.899h-23.301v-135.985h23.181zm-12.547 125.231h12.547c8.079.096 16.104-1.322 23.66-4.183 13.552-5.142 24.253-15.843 29.396-29.395 2.86-7.557 4.279-15.582 4.182-23.66.101-8.041-1.318-16.028-4.182-23.541-5.101-13.606-15.811-24.359-29.396-29.515-7.556-2.86-15.581-4.279-23.66-4.182h-12.547v114.595zm164.783 10.754-4.899-17.924h-53.653l-4.9 17.924h-11.113l37.641-135.985h10.396l37.521 135.985h-11.112zm-8.006-28.559-23.78-86.036-23.779 86.036zm111.847 28.559-60.823-113.52v113.52h-10.635v-135.985h10.754l60.823 113.52v-113.52h10.635v135.985zm127.62-131.085c16.422 6.221 29.388 19.186 35.609 35.609 6.477 17.75 6.477 37.217 0 54.967-6.208 16.432-19.178 29.402-35.609 35.61-17.75 6.476-37.217 6.476-54.968 0-16.431-6.208-29.401-19.178-35.609-35.61-6.476-17.75-6.477-37.217 0-54.967 6.208-16.431 19.178-29.402 35.609-35.609 17.751-6.477 37.218-6.477 54.968 0zm-51.144 10.037c-13.585 5.156-24.295 15.909-29.395 29.515-2.868 7.513-4.287 15.5-4.183 23.541-.096 8.079 1.322 16.104 4.183 23.66 5.142 13.552 15.843 24.253 29.395 29.395 7.556 2.861 15.581 4.279 23.66 4.183 8.04.104 16.028-1.315 23.54-4.183 13.607-5.1 24.36-15.81 29.516-29.395 2.86-7.557 4.279-15.582 4.182-23.66.104-8.041-1.315-16.029-4.182-23.541-5.1-13.648-15.867-24.415-29.516-29.515-7.513-2.865-15.5-4.284-23.54-4.182-8.078-.097-16.104 1.322-23.66 4.182z"/></svg>

<?xml version="1.0" encoding="UTF-8"?>
<svg width="1000px" height="660px" viewBox="0 0 1000 660" xmlns="http://www.w3.org/2000/svg" xmlns:xlink="http://www.w3.org/1999/xlink" version="1.1">
 <!-- Generated by Pixelmator Pro 1.5.5 -->
 <path id="Path" d="M0 660 L1000 660 1000 0 0 0 Z" fill="#1a3528" fill-opacity="1" stroke="none"/>
 <path id="Path-1" d="M162.189 264.284 L167.327 265.598 164.698 275.875 159.56 274.56 C154.118 273.268 148.543 272.627 142.95 272.648 134.871 272.552 126.846 273.97 119.29 276.831 105.705 281.986 94.995 292.739 89.895 306.346 87.027 313.858 85.608 321.846 85.712 329.886 85.616 337.965 87.034 345.99 89.895 353.546 95.037 367.099 105.738 377.799 119.29 382.942 126.846 385.802 134.871 387.221 142.95 387.124 147.155 387.122 151.353 386.762 155.497 386.048 L155.497 324.628 166.132 324.628 166.132 394.652 162.189 395.728 C155.887 397.235 149.43 397.997 142.95 397.998 133.566 398.067 124.249 396.407 115.466 393.099 99.035 386.891 86.065 373.921 79.857 357.489 73.381 339.739 73.381 320.272 79.857 302.522 86.065 286.091 99.035 273.12 115.466 266.913 124.249 263.604 133.566 261.943 142.95 262.013 149.43 262.014 155.887 262.776 162.189 264.284 Z M191.584 397.998 L191.584 262.013 202.219 262.013 202.219 397.998 Z M319.085 266.913 C335.516 273.12 348.486 286.091 354.694 302.522 361.171 320.272 361.171 339.739 354.694 357.489 348.486 373.921 335.516 386.891 319.085 393.099 301.335 399.575 281.868 399.575 264.117 393.099 247.686 386.891 234.716 373.921 228.508 357.489 222.032 339.739 222.032 320.272 228.508 302.522 234.716 286.091 247.686 273.12 264.117 266.913 281.868 260.436 301.335 260.436 319.085 266.913 Z M267.941 276.95 C254.356 282.106 243.646 292.859 238.546 306.465 235.678 313.978 234.259 321.965 234.363 330.006 234.267 338.085 235.685 346.109 238.546 353.666 243.688 367.218 254.389 377.919 267.941 383.061 275.497 385.922 283.523 387.34 291.601 387.244 299.641 387.348 307.629 385.929 315.141 383.061 328.748 377.961 339.501 367.251 344.657 353.666 347.517 346.109 348.936 338.084 348.839 330.006 348.943 321.965 347.525 313.977 344.657 306.465 339.557 292.817 328.79 282.05 315.142 276.95 307.628 274.085 299.641 272.666 291.601 272.768 283.523 272.671 275.497 274.09 267.941 276.95 Z M413.127 262.013 C418.793 261.944 424.423 262.916 429.737 264.881 439.666 268.73 447.516 276.58 451.365 286.51 453.331 291.824 454.303 297.454 454.233 303.12 454.299 308.746 453.327 314.336 451.365 319.61 447.516 329.539 439.666 337.389 429.737 341.238 426.086 342.613 422.268 343.497 418.385 343.867 L454.353 397.879 441.447 397.879 405.599 344.225 391.618 344.225 391.618 397.879 380.983 397.879 380.983 262.013 Z M391.618 333.59 L413.127 333.59 C422.209 333.59 429.856 330.723 435.234 325.345 440.611 319.968 443.598 312.201 443.598 303.239 443.598 294.277 440.73 286.51 435.234 281.132 429.737 275.755 422.209 272.768 413.127 272.768 L391.618 272.768 Z M500.836 262.013 C510.221 261.943 519.537 263.604 528.32 266.913 544.742 273.134 557.708 286.099 563.929 302.522 570.406 320.272 570.406 339.739 563.929 357.489 557.721 373.921 544.751 386.891 528.32 393.099 519.537 396.407 510.221 398.067 500.836 397.998 L477.535 397.998 477.535 262.013 500.716 262.013 Z M488.289 387.244 L500.836 387.244 C508.915 387.34 516.94 385.922 524.496 383.061 538.048 377.919 548.749 367.218 553.892 353.666 556.752 346.109 558.171 338.084 558.074 330.006 558.175 321.965 556.756 313.978 553.892 306.465 548.791 292.859 538.081 282.106 524.496 276.95 516.94 274.09 508.915 272.671 500.836 272.768 L488.289 272.768 488.289 387.363 Z M653.072 397.998 L648.173 380.074 594.52 380.074 589.62 397.998 578.507 397.998 616.148 262.013 626.544 262.013 664.065 397.998 652.953 397.998 Z M645.066 369.439 L621.286 283.403 597.507 369.439 Z M756.913 397.998 L696.09 284.478 696.09 397.998 685.455 397.998 685.455 262.013 696.209 262.013 757.032 375.533 757.032 262.013 767.667 262.013 767.667 397.998 Z M884.533 266.913 C900.955 273.134 913.921 286.099 920.142 302.522 926.619 320.272 926.619 339.739 920.142 357.489 913.934 373.921 900.964 386.891 884.533 393.099 866.783 399.575 847.316 399.575 829.565 393.099 813.134 386.891 800.164 373.921 793.956 357.489 787.48 339.739 787.479 320.272 793.956 302.522 800.164 286.091 813.134 273.12 829.565 266.913 847.316 260.436 866.783 260.436 884.533 266.913 Z M833.389 276.95 C819.804 282.106 809.094 292.859 803.994 306.465 801.126 313.978 799.707 321.965 799.811 330.006 799.715 338.085 801.133 346.11 803.994 353.666 809.136 367.218 819.837 377.919 833.389 383.061 840.945 385.922 848.97 387.34 857.049 387.244 865.089 387.348 873.077 385.929 880.589 383.061 894.196 377.961 904.949 367.251 910.105 353.666 912.965 346.109 914.384 338.084 914.287 330.006 914.391 321.965 912.972 313.977 910.105 306.465 905.005 292.817 894.238 282.05 880.589 276.95 873.076 274.085 865.089 272.666 857.049 272.768 848.971 272.671 840.945 274.09 833.389 276.95 Z" fill="#ff5629" fill-opacity="1" stroke="none"/>
</svg>
